X: 311
T: Shuigua xibaoto
%%abc-version 2.0
%%abcx-abcm2ps-target-version 5.9.1 (29 Sep 2008)
%%abc-creator hum2abc beta
%%abcx-conversion-date 2013/10/02 07:52:30
%%abc-edited-by Helmut Schaffrath
%%humdrum-veritas 1508795784
%%humdrum-veritas-data 3600931044
%%continueall 1
%%barnumbers 0
L: 1/8
M: 2/4
K: E
c B A B [I:setbarnb 1]| 
c> f e c | 
B4 | 
f e c/ e/ c/ B/ | 
A4 | 
B A B e | 
c B A F | 
E3F | 
C E C B, | 
B,2E2 | 
f e c/ e/ c/ B/ | 
f e c/ e/ c/ B/ | 
A4 | 
B A B e | 
c B A F | 
E3F | 
C E C B, | 
B A F E | 
F4 | 
B4 | 
e d c B | 
A B e c | 
B A/ B/ c/ A/ F/ B/ | 
E3F/ E/ | 
C E C B, | 
e c B A | 
E F F C | 
B,3C/ B,/ | 
A B, E C | 
B,3C | 
B,4 |]  



